X:251
T:Hornpipe TS.251
M:C
L:1/8
Q:1/2=84
S:Thomas Sands’ MS,1810,Lincolnshire
R:.hornpipe
O:England;Lincolnshire
Z:vmp.Ruairidh Greig, 2011
K:Bb
“qu.in ms”F2|B>AB>d B>AB>d|B>ba>g f>dc>B|c>de>d c>dc>B|A>Bc>A f>ec>A|
B>AB>d B>AB>d|B>ba>g f>=e_e>d|c>de>c f>ec>A|B2d2B2:|
|:A>G|F>Ac>e F>Ac>e|e>dc>B B>AG>F|G>BTB2F>BTB2|c>de>c B>AG>F|
E>gTg2D>fTf2|e>dc>B A>GF>E|D>FB>A G>ec>A|B2B2B2:|]

